X: 6137
T: Captain Lockhart Of The Tartar
R: reel
M: 4/4
K: Dmajor
A|dAAF GFED|Eeef gfef|dBAG FAdB|AFdF (3DDD DA|
dAAF GFED|Eeef gfef|dBAG FAdB|AFdF (3DDD D:|
|:g|(3fga dg fdaf|efga beeg|(3fga dg fdaf|geaf (3ddd dg|
(3fga dg fdaf|efga beeg|(3fga ef dgfe|dBAF (3DDD D:|

